Sources/FrostedUI/Resources/Icons.xcassets/listCheck20.imageset/list-check-20.svg

<svg width="20" height="20" viewBox="0 0 20 20" fill="none" xmlns="http://www.w3.org/2000/svg" data-fui-icon="true">
  <path
    d="M15.208 2.375C16.5427 2.375 17.625 3.45731 17.625 4.79199V15.208C17.625 16.5427 16.5427 17.625 15.208 17.625H4.79199C3.45731 17.625 2.375 16.5427 2.375 15.208V4.79199C2.375 3.4573 3.4573 2.375 4.79199 2.375H15.208ZM4.79199 3.875C4.28573 3.875 3.875 4.28573 3.875 4.79199V15.208C3.875 15.7143 4.28572 16.125 4.79199 16.125H15.208C15.7143 16.125 16.125 15.7143 16.125 15.208V4.79199C16.125 4.28572 15.7143 3.875 15.208 3.875H4.79199ZM8.18262 11.0107C8.43116 10.6794 8.90206 10.6128 9.2334 10.8613C9.56448 11.1099 9.63126 11.5799 9.38281 11.9111L7.82324 13.9912L7.72461 14.0986C7.47482 14.3235 7.09737 14.358 6.80762 14.165L5.87012 13.54C5.52548 13.3103 5.43237 12.8446 5.66211 12.5C5.89187 12.1554 6.3575 12.0622 6.70215 12.292L7.04785 12.5225L8.18262 11.0107ZM13.542 11.75C13.9561 11.7502 14.292 12.0859 14.292 12.5C14.292 12.9141 13.9561 13.2498 13.542 13.25H11.458C11.0439 13.2498 10.708 12.9141 10.708 12.5C10.708 12.0859 11.0439 11.7502 11.458 11.75H13.542ZM8.18262 6.00977C8.43116 5.67848 8.90206 5.61185 9.2334 5.86035C9.56448 6.10894 9.63125 6.57889 9.38281 6.91016L7.82324 8.99023L7.72461 9.09766C7.47481 9.32254 7.09739 9.35703 6.80762 9.16406L5.87012 8.53906C5.52549 8.3093 5.43237 7.84366 5.66211 7.49902C5.89188 7.15438 6.35751 7.06124 6.70215 7.29102L7.04785 7.52148L8.18262 6.00977ZM13.5898 6.75C14.0041 6.75 14.3398 7.08579 14.3398 7.5C14.3398 7.91421 14.0041 8.25 13.5898 8.25H11.5068C11.0926 8.25 10.7568 7.91421 10.7568 7.5C10.7568 7.08579 11.0926 6.75 11.5068 6.75H13.5898Z"
    fill="currentColor"
  />
</svg>

<svg xmlns="http://www.w3.org/2000/svg" width="20" height="20" fill="none" data-fui-icon="true" viewBox="0 0 20 20"><path fill="currentColor" d="M15.208 2.375a2.417 2.417 0 0 1 2.417 2.417v10.416a2.417 2.417 0 0 1-2.417 2.417H4.792a2.417 2.417 0 0 1-2.417-2.417V4.792a2.417 2.417 0 0 1 2.417-2.417zm-10.416 1.5a.917.917 0 0 0-.917.917v10.416c0 .506.41.917.917.917h10.416c.506 0 .917-.41.917-.917V4.792a.917.917 0 0 0-.917-.917zm3.39 7.136a.75.75 0 0 1 1.2.9l-1.559 2.08-.098.108a.75.75 0 0 1-.917.066l-.938-.625a.75.75 0 1 1 .832-1.248l.346.23zm5.36.739a.75.75 0 0 1 0 1.5h-2.084a.75.75 0 0 1 0-1.5zm-5.36-5.74a.75.75 0 0 1 1.2.9L7.824 8.99l-.098.108a.75.75 0 0 1-.917.066L5.87 8.54a.75.75 0 0 1 .832-1.248l.346.23zm5.408.74a.75.75 0 1 1 0 1.5h-2.083a.75.75 0 0 1 0-1.5z"/></svg>
